flaticon/interaction/smartphone-13.svg

<svg xmlns="http://www.w3.org/2000/svg" width="32" height="32" viewBox="0 0 24 24">
    <path d="M12.601562 22L22.199219 22 22.199219 12.398438 12.601562 12.398438zM13.398438 13.199219L21.398438 13.199219 21.398438 21.199219 17.800781 21.199219 17.800781 16.164062 19.515625 17.882812 20.082031 17.316406 17.398438 14.632812 14.71875 17.316406 15.28125 17.882812 17 16.164062 17 21.199219 13.398438 21.199219zM7 21.199219C7 22.082031 7.71875 22.800781 8.601562 22.800781 9.480469 22.800781 10.199219 22.082031 10.199219 21.199219 10.199219 20.316406 9.480469 19.601562 8.601562 19.601562 7.71875 19.601562 7 20.316406 7 21.199219zM9.398438 21.199219C9.398438 21.640625 9.042969 22 8.601562 22 8.160156 22 7.800781 21.640625 7.800781 21.199219 7.800781 20.757812 8.160156 20.398438 8.601562 20.398438 9.042969 20.398438 9.398438 20.757812 9.398438 21.199219zM9.398438 21.199219"/>
    <path d="M 15.398438 12 L 15.398438 1.761719 C 15.398438 0.789062 14.609375 0 13.636719 0 L 3.5625 0 C 2.589844 0 1.800781 0.789062 1.800781 1.761719 L 1.800781 22.238281 C 1.800781 23.210938 2.589844 24 3.5625 24 L 13.636719 24 C 13.859375 24 14.039062 23.820312 14.039062 23.601562 C 14.039062 23.378906 13.859375 23.199219 13.636719 23.199219 L 3.5625 23.199219 C 3.03125 23.199219 2.601562 22.769531 2.601562 22.238281 L 2.601562 19.199219 L 11 19.199219 C 11.222656 19.199219 11.398438 19.019531 11.398438 18.800781 C 11.398438 18.578125 11.222656 18.398438 11 18.398438 L 2.601562 18.398438 L 2.601562 3.199219 L 14.601562 3.199219 L 14.601562 12 C 14.601562 12.222656 14.777344 12.398438 15 12.398438 C 15.222656 12.398438 15.398438 12.222656 15.398438 12 Z M 2.601562 2.398438 L 2.601562 1.761719 C 2.601562 1.230469 3.03125 0.800781 3.5625 0.800781 L 13.636719 0.800781 C 14.167969 0.800781 14.601562 1.230469 14.601562 1.761719 L 14.601562 2.398438 Z M 2.601562 2.398438"/>
    <path d="M8.601562 1.199219L7 1.199219C6.777344 1.199219 6.601562 1.378906 6.601562 1.601562 6.601562 1.820312 6.777344 2 7 2L8.601562 2C8.820312 2 9 1.820312 9 1.601562 9 1.378906 8.820312 1.199219 8.601562 1.199219zM10.199219 1.199219L9.800781 1.199219C9.578125 1.199219 9.398438 1.378906 9.398438 1.601562 9.398438 1.820312 9.578125 2 9.800781 2L10.199219 2C10.421875 2 10.601562 1.820312 10.601562 1.601562 10.601562 1.378906 10.421875 1.199219 10.199219 1.199219zM10.199219 1.199219"/>
</svg>

<svg xmlns="http://www.w3.org/2000/svg" width="32" height="32" viewBox="0 0 24 24">
    <path d="M12.602 22h9.597v-9.602h-9.597zm.796-8.8h8v8h-3.597v-5.036l1.715 1.719.566-.567-2.684-2.683-2.68 2.683.563.567L17 16.164V21.2h-3.602zm0 0M7 21.2c0 .882.719 1.6 1.602 1.6A1.6 1.6 0 1 0 7 21.199zm2.398 0a.799.799 0 1 1-1.597 0 .799.799 0 0 1 1.598 0zm0 0"/>
    <path d="M15.398 12V1.762C15.398.789 14.61 0 13.637 0H3.562C2.59 0 1.802.79 1.802 1.762v20.476C1.8 23.211 2.59 24 3.563 24h10.074a.401.401 0 1 0 0-.8H3.562a.96.96 0 0 1-.96-.962V19.2H11c.223 0 .398-.18.398-.398a.398.398 0 0 0-.398-.403H2.602V3.2h12V12c0 .223.175.398.398.398a.395.395 0 0 0 .398-.398zM2.602 2.398v-.636c0-.532.43-.961.96-.961h10.075c.531 0 .965.43.965.96v.637zm0 0"/>
    <path d="M8.602 1.2H7a.398.398 0 0 0-.398.402c0 .218.175.398.398.398h1.602a.4.4 0 0 0 0-.8zm0 0M10.2 1.2h-.4a.401.401 0 0 0 0 .8h.4a.401.401 0 1 0 0-.8zm0 0"/>
</svg>
